X: 26545
T: Michel Ferry's
R: polka
M: 2/4
K: Bdorian
|:B>c df|Bf ec|a2 g/b/a/g/|ab ge|
d>f ed|ef dB|e/f/e/d/ ce|1 cB BA:|2 cB Be||
f>g ab-|bf bf|e/f/e/d/ ce|AB ce|
A>B ce|AB ce|a/g/a/b/ ge|f2 fe|
f>g ab-|bf bf|e>f ga-|af ge|
d>f ed|ef dB|e/f/e/d/ ce|cB BA||

